X:699
%%etbk:tnset id:434,pos:1,rep:3x,ant:
%%etbk:wsite https://thesession.org/tunes/1114
%%etbk:video src:ytube,cde:jbY-LpV3K-k,desc:first tune
%%etbk:color #ffffcc
%%etbk:pldat 2016-09-17T15:40,2016-09-09T18:54,2016-09-08T18:35,2016-09-07T17:20,2016-09-03T11:40,2016-08-05T16:46,2016-07-31T16:20,2016-07-28T18:56,2016-07-23T17:09,2016-07-18T18:49,2016-07-15T16:24,2016-07-09T14:09,2016-07-07T16:52,2016-06-18T16:45,2016-06-13T16:57,2016-06-12T14:29,2016-05-04T17:12,2016-04-04T19:18,2016-03-31T18:01,2016-03-22T18:11,2016-01-18T18:56,2016-01-17T14:24,2016-01-14T18:32,2016-01-13T17:18,2016-01-12T17:56,2016-01-04T19:02,2016-01-03T14:24,2015-12-29T17:48,2015-12-28T17:24,2015-12-22T17:52,2015-12-21T19:38,2015-12-16T17:52,2015-12-16T17:30,2015-12-14T18:26,2015-08-14T17:09,2015-06-05T17:50,2015-05-10T12:13,2015-05-06T15:59,2015-05-05T18:24,2015-05-05T17:34,2015-04-26T16:33
T: King George IV
Z: Piano Box Version by Martin Fleischmann
H: Created 2015-04-26 /  Last Modified 2015-12-22
R: strathspey
M: 4/4
L: 1/8
K: Ador
!5!A|:"am"!3!E<A, A,>B, !3!C>B,A,>A|!3!E<A,A,>C "em"!2!B,>A,G,>A|"am"E<A,A,>B, C>D E<C|"em"!1!B,<D !5!G>!3!E !2!D/!1!C/!3!B,/!2!A,/ !1!G,:|
B|"A"!3!^c>e A<e c>e !4!d/c/B/A/|^c>e A>e "G"!4!d/c/B/A/ G>B|"A"^c>e A<e c>eA>f|"G"g>g !5!a/g/f/e/ !1!d/!3!^c/B/!1!A/ !1!G>B|
"A"^c>e A<e c>e d/c/B/A/|^c>e A>e "G"d/c/B/A/ G>B|"am"!3!c>e !2!B<d !2!A<B !1!E>!4!F|"G"!5!G2G>!3!E !2!D/!1!C/!3!B,/A,/ G,||


